src/images/icons/responsivedesign.svg

<?xml version="1.0" encoding="UTF-8"?>
<!DOCTYPE svg  PUBLIC '-//W3C//DTD SVG 1.1//EN'  'http://www.w3.org/Graphics/SVG/1.1/DTD/svg11.dtd'>
<svg enable-background="new 0 0 255.8 256" version="1.1" viewBox="0 0 255.8 256" xml:space="preserve" xmlns="http://www.w3.org/2000/svg">
	<circle cx="127.9" cy="127.9" r="127.9" fill="#92BABC"/>
<path d="m255.8 127.9c0-7.3-0.6-14.5-1.8-21.5l-45.4-45.4-40.4 11.1-121.1 121.1 61.1 61.1c6.4 1 13 1.5 19.7 1.5 70.7 0 127.9-57.3 127.9-127.9z" fill="#789B9B"/>
						<path d="m209.6 63.9c0-2.6-2.1-4.6-4.6-4.6h-148.5c-2.6 0-4.6 2.1-4.6 4.6v83.5h157.8l-0.1-83.5z" fill="#3B4250"/>
						<rect x="112.2" y="166" width="37.1" height="11.6" fill="#EFEEEE"/>
						<rect x="98.2" y="177.6" width="65" height="4.6" fill="#fff"/>
						<path d="m205 63.9v78.9h-148.5v-78.9h148.5zm0-4.7h-148.5c-2.6 0-4.6 2.1-4.6 4.6v83.5h157.8v-83.4c-0.1-2.6-2.2-4.7-4.7-4.7z" fill="#626771"/>
						<path d="M51.8,147.4v13.9c0,2.6,2.1,4.6,4.6,4.6H205c2.6,0,4.6-2.1,4.6-4.6v-13.9H51.8z" fill="#fff"/>
						<rect x="123.8" y="154.4" width="13.9" height="4.6" fill="#626771"/>
						<rect x="112.2" y="166" width="37.1" height="2.3" fill="#D8D8DA"/>
				<rect x="56.5" y="63.9" width="148.5" height="78.9" fill="#fff"/>
					<rect x="87.8" y="86.3" width="49.1" height="2.5" fill="#626771"/>
					<rect x="141.9" y="86.3" width="32" height="2.5" fill="#92BABC"/>
					<rect x="82.8" y="91.2" width="95.9" height="2.5" fill="#92BABC"/>
					<rect x="87.8" y="96.2" width="24.6" height="2.5" fill="#92BABC"/>
					<rect x="117.3" y="96.2" width="9.8" height="2.5" fill="#626771"/>
					<rect x="132" y="96.2" width="41.8" height="2.5" fill="#92BABC"/>
					<rect x="67.4" y="69.8" width="126.9" height="9.8" fill="#92BABC"/>
						<rect x="73.7" y="73.5" width="12.7" height="2.5" fill="#fff"/>
						<rect x="92.7" y="69.8" width="25.4" height="9.8" fill="#626771"/>
						<rect x="99.1" y="73.5" width="12.7" height="2.5" fill="#fff"/>
						<rect x="124.4" y="73.5" width="12.7" height="2.5" fill="#fff"/>
						<rect x="149.8" y="73.5" width="12.7" height="2.5" fill="#fff"/>
						<rect x="175.2" y="73.5" width="12.7" height="2.5" fill="#fff"/>
						<rect x="79.1" y="105.3" width="19.7" height="19.7" fill="#92BABC"/>
						<rect x="79.1" y="128.7" width="19.7" height="2.5" fill="#92BABC"/>
						<rect x="79.1" y="133.6" width="19.7" height="2.5" fill="#626771"/>
						<rect x="107" y="105.3" width="19.7" height="19.7" fill="#E36A5C"/>
						<rect x="107" y="128.7" width="19.7" height="2.5" fill="#E36A5C"/>
						<rect x="107" y="133.6" width="14.8" height="2.5" fill="#626771"/>
						<rect x="134.9" y="105.3" width="19.7" height="19.7" fill="#626771"/>
						<rect x="134.9" y="128.7" width="14.8" height="2.5" fill="#626771"/>
						<rect x="134.9" y="133.6" width="19.7" height="2.5" fill="#626771"/>
						<rect x="162.8" y="105.3" width="19.7" height="19.7" fill="#F0B14E"/>
						<rect x="162.8" y="128.7" width="19.7" height="2.5" fill="#F0B14E"/>
						<rect x="162.8" y="133.6" width="9.8" height="2.5" fill="#626771"/>
					<path d="m106.5 190.6v-66c0-3.3-2.7-6-6-6h-47.9c-3.3 0-6 2.7-6 6v66c0 3.3 2.7 6 6 6h47.9c3.3 0 6-2.7 6-6z" fill="#626771"/>
					<rect x="73.6" y="192.8" width="6" height="1.5" fill="#fff"/>
				<polygon points="100.5 190.5 100.5 190.6 52.6 190.6 52.6 190.5 52.6 124.6 52.6 124.6 100.5 124.6 100.5 124.6" fill="#fff"/>
					<rect x="59.1" y="141.3" width="20" height="2" fill="#626771"/>
					<rect x="81.1" y="141.3" width="13" height="2" fill="#92BABC"/>
					<rect x="57.1" y="145.4" width="39" height="2" fill="#92BABC"/>
					<rect x="59.1" y="149.4" width="10" height="2" fill="#92BABC"/>
					<rect x="71.1" y="149.4" width="4" height="2" fill="#626771"/>
					<rect x="77.1" y="149.4" width="17" height="2" fill="#92BABC"/>
					<rect x="56.6" y="128.5" width="40" height="8.1" fill="#92BABC"/>
						<rect x="58.6" y="131.6" width="4" height="2" fill="#fff"/>
						<rect x="64.6" y="128.5" width="8" height="8.1" fill="#626771"/>
						<rect x="66.6" y="131.6" width="4" height="2" fill="#fff"/>
						<rect x="74.6" y="131.6" width="4" height="2" fill="#fff"/>
						<rect x="82.6" y="131.6" width="4" height="2" fill="#fff"/>
						<rect x="90.6" y="131.6" width="4" height="2" fill="#fff"/>
						<rect x="56.9" y="159.2" width="16.3" height="16.3" fill="#92BABC"/>
						<rect x="56.9" y="178.5" width="16.3" height="2" fill="#92BABC"/>
						<rect x="56.9" y="182.6" width="16.3" height="2" fill="#626771"/>
						<rect x="80" y="159.2" width="16.3" height="16.3" fill="#E36A5C"/>
						<rect x="80" y="178.5" width="16.3" height="2" fill="#E36A5C"/>
						<rect x="80" y="182.6" width="12.2" height="2" fill="#626771"/>
				<rect x="169.8" y="142.2" width="32.7" height="43.5" fill="#fff"/>
			<path d="m198.9 134.9h-25.4c-2 0-3.6 1.6-3.6 3.6v54.4c0 2 1.6 3.6 3.6 3.6h25.4c2 0 3.6-1.6 3.6-3.6v-54.4c0-1.9-1.6-3.6-3.6-3.6zm1.8 9.1v39.9h-29v-39.9h29z" fill="#626771"/>
				<rect x="182.5" y="189.2" width="7.3" height="1.8" fill="#fff"/>
						<rect x="173.7" y="168.3" width="10.3" height="10.3" fill="#92BABC"/>
						<rect x="173.7" y="180.6" width="10.3" height="1.3" fill="#92BABC"/>
						<rect x="188.3" y="168.3" width="10.3" height="10.3" fill="#E36A5C"/>
						<rect x="188.3" y="180.6" width="10.3" height="1.3" fill="#E36A5C"/>
					<rect x="173.1" y="146.2" width="26.1" height="4.9" fill="#92BABC"/>
						<rect x="174.4" y="148.1" width="2.6" height="1.2" fill="#fff"/>
						<rect x="178.3" y="146.2" width="5.2" height="4.9" fill="#626771"/>
						<rect x="179.6" y="148.1" width="2.6" height="1.2" fill="#fff"/>
						<rect x="184.9" y="148.1" width="2.6" height="1.2" fill="#fff"/>
						<rect x="190.1" y="148.1" width="2.6" height="1.2" fill="#fff"/>
						<rect x="195.3" y="148.1" width="2.6" height="1.2" fill="#fff"/>
					<rect x="174.4" y="153.5" width="13.4" height="2.5" fill="#626771"/>
					<rect x="189.2" y="153.5" width="8.7" height="2.5" fill="#92BABC"/>
					<rect x="173.1" y="158.4" width="26.2" height="2.5" fill="#92BABC"/>
					<rect x="174.4" y="163.3" width="6.7" height="2.5" fill="#92BABC"/>
					<rect x="182.5" y="163.3" width="2.7" height="2.5" fill="#626771"/>
					<rect x="186.5" y="163.3" width="11.4" height="2.5" fill="#92BABC"/>
</svg>

<?xml version="1.0" encoding="utf-8"?>
<!-- Generator: Adobe Illustrator 18.0.0, SVG Export Plug-In . SVG Version: 6.00 Build 0)  -->
<!DOCTYPE svg PUBLIC "-//W3C//DTD SVG 1.1//EN" "http://www.w3.org/Graphics/SVG/1.1/DTD/svg11.dtd">
<svg version="1.1" id="Layer_1" xmlns="http://www.w3.org/2000/svg" xmlns:xlink="http://www.w3.org/1999/xlink" x="0px" y="0px"
	 width="255.8px" height="256px" viewBox="0 0 255.8 256" enable-background="new 0 0 255.8 256" xml:space="preserve">
<g>
	<circle fill="#92BABC" cx="127.9" cy="127.9" r="127.9"/>
</g>
<path fill="#789B9B" d="M255.8,127.9c0-7.3-0.6-14.5-1.8-21.5L208.6,61l-40.4,11.1L47.1,193.2l61.1,61.1c6.4,1,13,1.5,19.7,1.5
	C198.6,255.8,255.8,198.5,255.8,127.9z"/>
<g>
	<g>
		<g>
			<g>
				<g>
					<g>
						<path fill="#3B4250" d="M209.6,63.9c0-2.6-2.1-4.6-4.6-4.6H56.5c-2.6,0-4.6,2.1-4.6,4.6v83.5h157.8L209.6,63.9L209.6,63.9z"/>
					</g>
				</g>
			</g>
			<g>
				<g>
					<g>
						<rect x="112.2" y="166" fill="#EFEEEE" width="37.1" height="11.6"/>
					</g>
				</g>
			</g>
			<g>
				<g>
					<g>
						<rect x="98.2" y="177.6" fill="#FFFFFF" width="65" height="4.6"/>
					</g>
				</g>
			</g>
			<g>
				<g>
					<g>
						<path fill="#626771" d="M205,63.9C205,63.9,205,63.9,205,63.9l0,78.9H56.5V63.9c0,0,0,0,0,0L205,63.9L205,63.9z M205,59.2
							H56.5c-2.6,0-4.6,2.1-4.6,4.6v83.5h157.8V63.9C209.6,61.3,207.5,59.2,205,59.2L205,59.2z"/>
					</g>
				</g>
			</g>
			<g>
				<g>
					<g>
						<path fill="#FFFFFF" d="M51.8,147.4v13.9c0,2.6,2.1,4.6,4.6,4.6H205c2.6,0,4.6-2.1,4.6-4.6v-13.9H51.8z"/>
					</g>
				</g>
			</g>
			<g>
				<g>
					<g>
						<rect x="123.8" y="154.4" fill="#626771" width="13.9" height="4.6"/>
					</g>
				</g>
			</g>
			<g>
				<g>
					<g>
						<rect x="112.2" y="166" fill="#D8D8DA" width="37.1" height="2.3"/>
					</g>
				</g>
			</g>
		</g>
		<g>
			<g>
				<rect x="56.5" y="63.9" fill="#FFFFFF" width="148.5" height="78.9"/>
			</g>
		</g>
		<g>
			<g>
				<g>
					<rect x="87.8" y="86.3" fill="#626771" width="49.1" height="2.5"/>
				</g>
			</g>
			<g>
				<g>
					<rect x="141.9" y="86.3" fill="#92BABC" width="32" height="2.5"/>
				</g>
			</g>
			<g>
				<g>
					<rect x="82.8" y="91.2" fill="#92BABC" width="95.9" height="2.5"/>
				</g>
			</g>
			<g>
				<g>
					<rect x="87.8" y="96.2" fill="#92BABC" width="24.6" height="2.5"/>
				</g>
			</g>
			<g>
				<g>
					<rect x="117.3" y="96.2" fill="#626771" width="9.8" height="2.5"/>
				</g>
			</g>
			<g>
				<g>
					<rect x="132" y="96.2" fill="#92BABC" width="41.8" height="2.5"/>
				</g>
			</g>
		</g>
		<g>
			<g>
				<g>
					<rect x="67.4" y="69.8" fill="#92BABC" width="126.9" height="9.8"/>
				</g>
			</g>
			<g>
				<g>
					<g>
						<rect x="73.7" y="73.5" fill="#FFFFFF" width="12.7" height="2.5"/>
					</g>
				</g>
			</g>
			<g>
				<g>
					<g>
						<rect x="92.7" y="69.8" fill="#626771" width="25.4" height="9.8"/>
					</g>
				</g>
				<g>
					<g>
						<rect x="99.1" y="73.5" fill="#FFFFFF" width="12.7" height="2.5"/>
					</g>
				</g>
			</g>
			<g>
				<g>
					<g>
						<rect x="124.4" y="73.5" fill="#FFFFFF" width="12.7" height="2.5"/>
					</g>
				</g>
			</g>
			<g>
				<g>
					<g>
						<rect x="149.8" y="73.5" fill="#FFFFFF" width="12.7" height="2.5"/>
					</g>
				</g>
			</g>
			<g>
				<g>
					<g>
						<rect x="175.2" y="73.5" fill="#FFFFFF" width="12.7" height="2.5"/>
					</g>
				</g>
			</g>
		</g>
		<g>
			<g>
				<g>
					<g>
						<rect x="79.1" y="105.3" fill="#92BABC" width="19.7" height="19.7"/>
					</g>
				</g>
				<g>
					<g>
						<rect x="79.1" y="128.7" fill="#92BABC" width="19.7" height="2.5"/>
					</g>
				</g>
				<g>
					<g>
						<rect x="79.1" y="133.6" fill="#626771" width="19.7" height="2.5"/>
					</g>
				</g>
			</g>
			<g>
				<g>
					<g>
						<rect x="107" y="105.3" fill="#E36A5C" width="19.7" height="19.7"/>
					</g>
				</g>
				<g>
					<g>
						<rect x="107" y="128.7" fill="#E36A5C" width="19.7" height="2.5"/>
					</g>
				</g>
				<g>
					<g>
						<rect x="107" y="133.6" fill="#626771" width="14.8" height="2.5"/>
					</g>
				</g>
			</g>
			<g>
				<g>
					<g>
						<rect x="134.9" y="105.3" fill="#626771" width="19.7" height="19.7"/>
					</g>
				</g>
				<g>
					<g>
						<rect x="134.9" y="128.7" fill="#626771" width="14.8" height="2.5"/>
					</g>
				</g>
				<g>
					<g>
						<rect x="134.9" y="133.6" fill="#626771" width="19.7" height="2.5"/>
					</g>
				</g>
			</g>
			<g>
				<g>
					<g>
						<rect x="162.8" y="105.3" fill="#F0B14E" width="19.7" height="19.7"/>
					</g>
				</g>
				<g>
					<g>
						<rect x="162.8" y="128.7" fill="#F0B14E" width="19.7" height="2.5"/>
					</g>
				</g>
				<g>
					<g>
						<rect x="162.8" y="133.6" fill="#626771" width="9.8" height="2.5"/>
					</g>
				</g>
			</g>
		</g>
	</g>
	<g>
		<g>
			<g>
				<g>
					<path fill="#626771" d="M106.5,190.6v-66c0-3.3-2.7-6-6-6H52.6c-3.3,0-6,2.7-6,6v66c0,3.3,2.7,6,6,6h47.9
						C103.8,196.6,106.5,193.9,106.5,190.6L106.5,190.6z"/>
				</g>
			</g>
			<g>
				<g>
					<rect x="73.6" y="192.8" fill="#FFFFFF" width="6" height="1.5"/>
				</g>
			</g>
		</g>
		<g>
			<g>
				<polygon fill="#FFFFFF" points="100.5,190.5 100.5,190.6 52.6,190.6 52.6,190.5 52.6,124.6 52.6,124.6 100.5,124.6 100.5,124.6 
									"/>
			</g>
		</g>
		<g>
			<g>
				<g>
					<rect x="59.1" y="141.3" fill="#626771" width="20" height="2"/>
				</g>
			</g>
			<g>
				<g>
					<rect x="81.1" y="141.3" fill="#92BABC" width="13" height="2"/>
				</g>
			</g>
			<g>
				<g>
					<rect x="57.1" y="145.4" fill="#92BABC" width="39" height="2"/>
				</g>
			</g>
			<g>
				<g>
					<rect x="59.1" y="149.4" fill="#92BABC" width="10" height="2"/>
				</g>
			</g>
			<g>
				<g>
					<rect x="71.1" y="149.4" fill="#626771" width="4" height="2"/>
				</g>
			</g>
			<g>
				<g>
					<rect x="77.1" y="149.4" fill="#92BABC" width="17" height="2"/>
				</g>
			</g>
		</g>
		<g>
			<g>
				<g>
					<rect x="56.6" y="128.5" fill="#92BABC" width="40" height="8.1"/>
				</g>
			</g>
			<g>
				<g>
					<g>
						<rect x="58.6" y="131.6" fill="#FFFFFF" width="4" height="2"/>
					</g>
				</g>
			</g>
			<g>
				<g>
					<g>
						<rect x="64.6" y="128.5" fill="#626771" width="8" height="8.1"/>
					</g>
				</g>
				<g>
					<g>
						<rect x="66.6" y="131.6" fill="#FFFFFF" width="4" height="2"/>
					</g>
				</g>
			</g>
			<g>
				<g>
					<g>
						<rect x="74.6" y="131.6" fill="#FFFFFF" width="4" height="2"/>
					</g>
				</g>
			</g>
			<g>
				<g>
					<g>
						<rect x="82.6" y="131.6" fill="#FFFFFF" width="4" height="2"/>
					</g>
				</g>
			</g>
			<g>
				<g>
					<g>
						<rect x="90.6" y="131.6" fill="#FFFFFF" width="4" height="2"/>
					</g>
				</g>
			</g>
		</g>
		<g>
			<g>
				<g>
					<g>
						<rect x="56.9" y="159.2" fill="#92BABC" width="16.3" height="16.3"/>
					</g>
				</g>
				<g>
					<g>
						<rect x="56.9" y="178.5" fill="#92BABC" width="16.3" height="2"/>
					</g>
				</g>
				<g>
					<g>
						<rect x="56.9" y="182.6" fill="#626771" width="16.3" height="2"/>
					</g>
				</g>
			</g>
			<g>
				<g>
					<g>
						<rect x="80" y="159.2" fill="#E36A5C" width="16.3" height="16.3"/>
					</g>
				</g>
				<g>
					<g>
						<rect x="80" y="178.5" fill="#E36A5C" width="16.3" height="2"/>
					</g>
				</g>
				<g>
					<g>
						<rect x="80" y="182.6" fill="#626771" width="12.2" height="2"/>
					</g>
				</g>
			</g>
		</g>
	</g>
	<g>
		<g>
			<g>
				<rect x="169.8" y="142.2" fill="#FFFFFF" width="32.7" height="43.5"/>
			</g>
			<path fill="#626771" d="M198.9,134.9h-25.4c-2,0-3.6,1.6-3.6,3.6v3.6v43.5h0v7.3c0,2,1.6,3.6,3.6,3.6h25.4c2,0,3.6-1.6,3.6-3.6
				v-7.3h0v-43.5v-3.6C202.5,136.6,200.9,134.9,198.9,134.9z M200.7,144v39.9h-29V144H200.7z"/>
			<g>
				<rect x="182.5" y="189.2" fill="#FFFFFF" width="7.3" height="1.8"/>
			</g>
		</g>
		<g>
			<g>
				<g>
					<g>
						<rect x="173.7" y="168.3" fill="#92BABC" width="10.3" height="10.3"/>
					</g>
				</g>
				<g>
					<g>
						<rect x="173.7" y="180.6" fill="#92BABC" width="10.3" height="1.3"/>
					</g>
				</g>
			</g>
			<g>
				<g>
					<g>
						<rect x="188.3" y="168.3" fill="#E36A5C" width="10.3" height="10.3"/>
					</g>
				</g>
				<g>
					<g>
						<rect x="188.3" y="180.6" fill="#E36A5C" width="10.3" height="1.3"/>
					</g>
				</g>
			</g>
		</g>
		<g>
			<g>
				<g>
					<rect x="173.1" y="146.2" fill="#92BABC" width="26.1" height="4.9"/>
				</g>
			</g>
			<g>
				<g>
					<g>
						<rect x="174.4" y="148.1" fill="#FFFFFF" width="2.6" height="1.2"/>
					</g>
				</g>
			</g>
			<g>
				<g>
					<g>
						<rect x="178.3" y="146.2" fill="#626771" width="5.2" height="4.9"/>
					</g>
				</g>
				<g>
					<g>
						<rect x="179.6" y="148.1" fill="#FFFFFF" width="2.6" height="1.2"/>
					</g>
				</g>
			</g>
			<g>
				<g>
					<g>
						<rect x="184.9" y="148.1" fill="#FFFFFF" width="2.6" height="1.2"/>
					</g>
				</g>
			</g>
			<g>
				<g>
					<g>
						<rect x="190.1" y="148.1" fill="#FFFFFF" width="2.6" height="1.2"/>
					</g>
				</g>
			</g>
			<g>
				<g>
					<g>
						<rect x="195.3" y="148.1" fill="#FFFFFF" width="2.6" height="1.2"/>
					</g>
				</g>
			</g>
		</g>
		<g>
			<g>
				<g>
					<rect x="174.4" y="153.5" fill="#626771" width="13.4" height="2.5"/>
				</g>
			</g>
			<g>
				<g>
					<rect x="189.2" y="153.5" fill="#92BABC" width="8.7" height="2.5"/>
				</g>
			</g>
			<g>
				<g>
					<rect x="173.1" y="158.4" fill="#92BABC" width="26.2" height="2.5"/>
				</g>
			</g>
			<g>
				<g>
					<rect x="174.4" y="163.3" fill="#92BABC" width="6.7" height="2.5"/>
				</g>
			</g>
			<g>
				<g>
					<rect x="182.5" y="163.3" fill="#626771" width="2.7" height="2.5"/>
				</g>
			</g>
			<g>
				<g>
					<rect x="186.5" y="163.3" fill="#92BABC" width="11.4" height="2.5"/>
				</g>
			</g>
		</g>
	</g>
</g>
</svg>
